X: 21662
T: MISS FORBES'S FAREWELL TO BANFF
C: Isaac Cooper
Q: "Moderato"
%R: reel
B: W. Hamilton "Universal Tune-Book" Vol. 2 Glasgow 1846 p.166 #2
S: http://s3-eu-west-1.amazonaws.com/itma.dl.printmaterial/book_pdfs/hamiltonvol2web.pdf
Z: 2016 John Chambers <jc:trillian.mit.edu>
M: 2/4
L: 1/16
K: D
% - - - - - - - - - - - - - - - - - - - - - - - - -
DE |\
F3A GF ED | F2A2 B3d |\
A3B AF ED | F2E2 E2DE |\
F3A GF ED | F2A2 B3d |\
A3B AF ED | F2D2 D2 |]
(3(ABc) |\
dcde dcBA | BABc dBAG |\
FABA GFED | F2E2E2 (3(ABc) |\
dcde dcBA | BABc {c}d3B |\
A3B AF ED | F2D2 D2 |]
% - - - - - - - - - - - - - - - - - - - - - - - - -

%%sep 1 1 500
%%sep 1 1 500

